X:1
T:Title
%%score { 1 | ( 2 3 ) }
L:1/8
M:6/8
K:Bb
V:1 treble nm="Grand Piano"
V:2 bass 
V:3 bass 
V:1
 z3 z2[Q:1/4=100] [DF] | [DF]>[DF][DF] [DF][DG][DA] | [DB]3 [DB]3 | A2 G F2 E |[M:5/8] D-D- D3 | %5
[M:1/8] D |[M:3/4] =E2 EE F[G,EG] | [FA]2 [EA] [DB]2 [DG] | F2 =E D2 E |[M:5/8] F-F- F3 | %10
[M:1/8] F |[M:3/4] [DF]>[DF] [DF][DF] [DG][DA] | [DB]3 [DB]2 [DB] | c>c cc Bc | %14
[M:5/8] [Fd]-[Fd]- [Fd]3 |[M:1/8] [DB] |[M:3/4] [Fd]>[Fd] [Fd]d cB | [Ge]3 [Ge]2 [Gc] | B2 A G2 A | %19
[M:5/8] [DB]-[DB]- [DB]3 |] %20
V:2
 z3 z2 [B,,B,] | [B,,B,]>[B,,B,][B,,B,] [B,,B,][B,,B,][B,,B,] | [B,,B,]3 [B,,B,]3 | %3
 [F,CE]2 [F,B,E] [F,A,E]2 [F,A,C] |[M:5/8] [B,,B,]-[B,,B,]- [B,,B,]3 |[M:1/8] [B,,B,] | %6
[M:3/4] z2 z B, z2 | F,2 F, [B,,B,]2 [B,,B,] | [C,A,C]2 [C,G,C] [C,B,C]2 [B,C] | %9
[M:5/8] [F,A,C]-[F,A,C]- [F,A,C]3 |[M:1/8] [F,A,E] | %11
[M:3/4] [B,,B,]>[B,,B,] [B,,B,][B,,B,] [B,,B,][B,,B,] | [B,,B,]3 [B,,B,]2 [B,,B,] | %13
 [F,A,E]>[F,A,E] [F,A,E][A,E] [B,D][F,A,E] |[M:5/8] [B,,B,]-[B,,B,]- [B,,B,]3 |[M:1/8] [B,,B,] | %16
[M:3/4] [B,,B,]>[B,,B,] [B,,B,][K:treble][B,F] [B,E][K:bass][B,D] | [E,B,]3 [E,B,]2 [E,E] | %18
 [F,DF]2 [F,CE] [F,B,E]2 [F,CE] |[M:5/8] [B,,B,]-[B,,B,]- [B,,B,]3 |] %20
V:3
 x6 | x6 | x6 | x6 |[M:5/8] x5 |[M:1/8] x |[M:3/4] [C,G,B,]2 [C,G,B,][C,C]- [C,A,C]C, | x6 | x6 | %9
[M:5/8] x5 |[M:1/8] x |[M:3/4] x6 | x6 | z2 z .F,3 |[M:5/8] x5 |[M:1/8] x | %16
[M:3/4] x3[K:treble] x2[K:bass] x | x6 | x6 |[M:5/8] x5 |] %20

